!!!COM: Mozart, Wolfgang Amadeus
!!!CDT: 1756/01/27/-1791/12/05/
!!!CNT: German
!!!OTL: Piano Sonata No. 9 in D major
!!!SCT1: K<sup>1</sup> 311
!!!SCT2: K<sup>6</sup> 284c
!!!OMV: Mvmt. 2
!!!OMD: Andante
!!!ODT: 1777///
**kern	**kern	**dynam
*staff2	*staff1	*staff1/2
*clefF4	*clefG2	*clefG2
*k[f#]	*k[f#]	*k[f#]
*G:	*G:	*G:
*M2/4	*M2/4	*M2/4
*MM84	*MM84	*MM84
=1-	=1-	=1-
*^	*	*
2d/	(4G\	(8b/L	p
.	.	32ddQ/	.
.	.	16.cc/L	.
.	.	32b/JJk	.
.	8F#\L	8a/L	.
.	8G\J	8b/J)	.
=2	=2	=2	=2
2f#/	8A\L	(8cc\L	.
.	8F#\J	8dd\J	.
.	4G\)	16cc/LL	.
.	.	16b/	.
.	.	16a/	.
.	.	16g/JJ)	.
*v	*v	*	*
=3	=3	=3
8E'\ 8e'\L	8g'/ 8cc'/L	f
8D'\ 8d'\J	8g'/ 8b'/J	.
8C'\ 8c'\	8g'/ 8ee'/	.
16r	16r	.
16B\	16g/ 16dd/	p
=4	=4	=4
*^	*	*
4d/	(8F#\L	(16cc/LL	.
.	.	16a/	.
.	8G\J)	16b/	.
.	.	16g/JJ)	.
4d/	4D\	(8g/ 8b/L	.
.	.	8f#/) 8a/J	.
=5	=5	=5	=5
2d/	(4G\	8b\L	.
.	.	(32ddQ/	.
.	.	16.cc\L)	.
.	.	32b\JJk	.
.	8F#\L	8a/L	.
.	8G\J	8b/J)	.
=6	=6	=6	=6
2d/	8A\L	(8cc\L	.
.	8F#\J	16ee\L	.
.	.	16dd\JJ	.
.	4G\)	16cc/LL	.
.	.	16b/	.
.	.	16a/	.
.	.	16g/JJ)	.
*v	*v	*	*
=7	=7	=7
*	*^	*
8E'\ 8e'\L	8g'/ 8cc'/L	4r	f
8D'\ 8d'\J	8g'/ 8b'/J	.	.
8C'\ 8c'\	(16ee/LL	8g\	.
.	16ff#/	.	p
*clefG2	*	*	*
16r	16gg/	8r	.
16e/ 16g/	16cc/JJ)	.	.
*	*v	*v	*
=8	=8	=8
*^	*	*
(8g/L	4d\	(8b/L	.
8f#/J	.	8a/J	.
*clefF4	*clefF4	*	*
.	.	32gQ/LLL	.
.	.	32aQ/JJJ	.
(16G/LL)	4G\	4g/)	.
16B/	.	.	.
16d/	.	.	.
16B/JJ)	.	.	.
=9	=9	=9	=9
(16C/LL	4C\	4a/	.
16E/	.	.	.
16A/	.	.	.
16E/JJ)	.	.	.
(16D/LL	4D\	(16g/LL	.
16c/	.	16f#/)	.
16A/	.	(16f#/	.
16c/JJ)	.	16d/JJ)	.
=10	=10	=10	=10
16G/LL	(4G\	4b/	.
16B/	.	.	.
16d/	.	.	.
16B/JJ)	.	.	.
(16E/LL	4E\	8g/L	.
16G/	.	.	.
16B/	.	(8g/J	.
16G/JJ)	.	.	.
=11	=11	=11	=11
.	.	32f#Q/LLL	.
.	.	32gQ/JJJ	.
(16C/LL	4C\	8a/L)	.
16E/	.	.	.
16A/	.	8a/J	.
16E/JJ	.	.	.
16D/LL)	(4D\	(16g/LL	.
16c/	.	16f#/)	.
16A/	.	(16f#/	.
16c/JJ)	.	16d/JJ)	.
*v	*v	*	*
=12:|!	=12:|!	=12:|!
4G\ 4B\	4g/	.
8BB\ 8F#\ 8A\L	8d#/L	.
8BB\ 8F#\ 8A\J	8d#/J	.
=13	=13	=13
4E\ 4G\	(16e/LL	.
.	16f#/	.
.	16g/	.
.	16e/JJ)	.
8AA\ 8E\ 8G\L	(16dn/LL	.
.	(16c#/)	.
8AA\ 8E\ 8G\J	16c#/	.
.	16A/JJ)	.
=14	=14	=14
4D\ 4F#\	4a/	.
8BB\ 8B\L	8d/ 8g#/ 8dd/L	f
8BB\ 8B\J	8d/ 8g#/ 8dd/J	.
=15	=15	=15
4BB\ 4B\	4d/ 4g#/ 4dd/	.
8A\ 8e\L	8cc#\ 8aa\L	p
8A\ 8e\J	8cc#\ 8aa\J	.
=16	=16	=16
4A\ 4e\	4cc#\ 4aa\	.
4r	8r	.
.	(16.ff#\LL	f
.	32gg\JJk	.
*clefG2	*	*
=17	=17	=17
(16d/LL	8aa\L)	.
16f#/	.	.
16a/	[8aa\J	.
16f#/JJ)	.	.
(16d/LL	16aa\LL]	.
16f#/	16aa\	.
16a/	16.aa\	.
16f#/JJ)	.	.
.	32bb\JJk	.
=18	=18	=18
(16d/LL	(16aa\LL	.
16e/	16gg\J)	.
16b/	8.gg\J	.
16e/JJ)	.	.
(16d/LL	.	.
16e/	16gg'\LL	.
16b/	16ff#'\	.
16e/JJ)	16ee'\JJ	.
=19	=19	=19
(16c#/LL	(16ee\LL	.
16e/	16aa\J)	.
16a/	([8aa\J	.
16e/JJ)	.	.
(16B/LL	16aa\LL]	.
16d/	32bb\L	.
.	32aa\JJJ)	.
16g/	(32aa\LLL	.
.	32gg\	.
16d/JJ)	32ff#\	.
.	32gg\JJJ)	.
*clefF4	*	*
=20	=20	=20
(16A#\LL	(16gg\LL	.
16c#\	16ff#\J)	.
16e\	8.ff#\J	.
16A#\JJ)	.	.
(16B\LL	.	.
.	32ff#Q/LLL	.
.	32ggQ/JJJ	.
16f#\	16aa'\LL	.
16An\	16gg'\	.
16d\JJ)	16ff#'\JJ	.
=21	=21	=21
(16G#\LL	(16ff#\LL	.
16B\	16ee\)	.
16d\	16ee'\	.
16B\JJ)	16ee'\JJ	.
(16G#\LL	8ee\L	.
16B\	.	.
16d\	8ee\J	.
16B\JJ)	.	.
=22	=22	=22
.	(32gg#Q/LLL	.
.	32aaQ/	.
.	(32bbQ/JJJ	.
(16Gn\LL	4aa\)	.
16c#\	.	.
16e\	.	.
16G\JJ)	.	.
(16F#\LL	(16aa\LL)	.
16d\	32bb\L	.
.	32aa\J	.
16B\	16ggn\)	.
16A\JJ)	16ff#'\JJ	.
=23	=23	=23
4.G\ 4.B\	(16ff#\LL	.
.	16ee\	.
.	16dd#\	.
.	16ee\JJ	.
.	16ff#\LL)	.
.	16gg\	.
8G#\ 8e\	(16b\	.
.	16ee\JJ)	.
=24	=24	=24
4A\ 4e\	(16ddn\LL	.
.	16cc#\	.
.	16b\	.
.	16a\JJ	.
4r	16b\LL	.
.	16cc#\	.
.	16dd\	.
.	16ee\JJ)	.
*clefG2	*	*
=25	=25	=25
(16dd\LL	(8ff#\L	p
16a\	.	.
.	32aaQ/	.
16dd\	16.gg\L	.
16a\JJ	.	.
.	32ff#\JJk	.
16cc#\LL	8ee\L	.
16a\	.	.
16dd\	8ff#\J)	.
16a\JJ	.	.
=26	=26	=26
16ee\LL	(8gg\L	.
16a\	.	.
16cc#\	8aa\	.
16a\JJ	.	.
16dd\LL	8gg\	.
16a\	.	.
16dd\)	8ff#\J)	.
16a\JJ	.	.
=27	=27	=27
(8d/ 8f#/L	[2aa\	mf
32aQ/	.	.
16.e/ 16.g/L	.	.
32d/) 32f#/JJk	.	.
(8c#/ 8e/L	.	.
8d/) 8f#/J	.	.
=28	=28	=28
(8e/ 8g/L	2aa\]	.
8f#/ 8a/	.	.
8e/ 8g/	.	.
8d/) 8f#/J	.	.
=29	=29	=29
.	32gg#Q/LLL	.
.	32aaQ/JJJ	.
(8f#/ 8a/L	8dd\ (8ddd\L	f
8e/ 8g/ 8a#/J	8cc#\ 8ccc#\J	.
8d/) 8f#/	8b\ 8bb\)	.
8r	16r	.
.	16ff#\	p
=30	=30	=30
(8d/ 8f#/L	8b\ (8bb\L	.
8cn/ 8d/ 8f#/J	8a\ 8aa\J	.
8B/) 8d/	8g\ 8gg\)	.
8r	16r	.
.	16dd\	f
*clefF4	*	*
=31	=31	=31
8B\ (8d\L	8g\ (8gg\L	.
8A\ 8cn\ 8d#\J)	8f#\ 8ff#\J)	.
4G\ 4B\ 4e\	(16ee\LL	.
.	16bb\JJ)	.
.	(32aa\LLL	.
.	32gg\	.
.	32ff#\	.
.	32ee\JJJ)	.
=32	=32	=32
*^	*	*
(8f#/L	4A\	(8dd\L	.
8c#/J)	.	8ee\J)	.
(8c#/L	4D\	(8ee#\L	.
8d/J)	.	8ff#\J)	.
*clefG2	*clefG2	*	*
*v	*v	*	*
=33	=33	=33
(8f#/ 8a/L	(8ddd\L	p
8e/ 8f#/ 8a#/J	8ccc#\J	.
.	32bbQ/LLL	.
.	32ccc#Q/JJJ	.
8d/) 8f#/ 8b/	8bb\)	.
8r	16r	.
.	16ff#\	f
=34	=34	=34
(8d/ 8f#/L	(8bb\L	.
8cn/ 8d/ 8f#/J	8aa\J	.
8B/) 8d/ 8g/	8gg\)	.
8r	16r	.
.	16dd\	p
*clefF4	*	*
=35	=35	=35
8B\ (8d\L	(8gg\L	.
8A\ 8cn\ 8d#\J)	8ff#\J)	.
.	32eeQ/LLL	.
.	32ff#Q/JJJ	.
4G\ 4B\ 4e\	16ee\LL	.
.	16bb\JJ	>
.	(32aa\LLL	.
.	32gg\	.
.	32ff#\	.
.	32ee\JJJ)	.
=36	=36	=36
8A\ 8dn\ 8f#\	(16dd\LL	p
.	16ff#\J)	.
8r	([8aa\J	.
8A\ 8d\ 8f#\	16aa\LL]	.
.	16gg#\	.
8r	16ggn\	.
.	16ff#\JJ)	.
=37	=37	=37
8A\ 8d\ 8e\	(24bb\LL	.
.	24gg\	.
.	24ee\JJ)	.
8r	4.ee\	f
8A\ 8c#\ 8g\	.	.
8r	.	.
=38	=38	=38
.	32ddQ/LLL	.
.	32eeQ/JJJ	.
4d\ 4f#\	(16dd\LL	.
.	16cc#\	p
.	16dd\	.
.	16ee\JJ	.
4r	16dd\LL	.
.	16ccn\	.
.	16b\	.
.	16a#\JJ)	.
=39	=39	=39
*^	*	*
2d/	(8G\L	(8b/L	p
.	.	32ddQ/	.
.	16.A\L	16.cc/L	.
.	32G\JJk	32b/JJk	.
.	8F#\L	8an/L	.
.	8G\J)	8b/J)	.
=40	=40	=40	=40
2d/	(8A\L	8cc\L	.
.	.	(32ddQ/LLL	.
.	.	32ccQ/	.
.	.	32bQ/	.
.	.	32ccQ/JJJ	.
.	16c\L	16ee\L	.
.	16B\JJ	16dd\JJ	.
.	8A\L	8cc\L	.
.	8G\J)	8b\J)	.
*v	*v	*	*
=41	=41	=41
8E'\ 8e'\L	8g'/ 8cc'/L	f
8D'\ 8d'\J	8g'/ 8b'/J	.
8C'\ 8c'\	8g'/ 8ee'/	.
16r	16r	.
16B\	16g/ 16dd/	p
=42	=42	=42
*^	*	*
4r	(8F#\L	(16cc/LL	.
.	.	16a/	.
.	8G\J)	16b/	.
.	.	16g/JJ)	.
(8G/L	4D\	(8b/L	.
8F#/J	.	8a/J)	.
=43	=43	=43	=43
2d/)	(8G\L	(8b/L	.
.	32BQ/	32ccQ/LLL	.
.	.	32bQ/	.
.	.	32aQ/	.
.	.	32bQ/JJJ	.
.	.	32ddQ/	.
.	16.A\L	16.cc/L	.
.	32G\JJk	32b/JJk	.
.	8F#\L	8a/L	.
.	8G#\J)	8b/J)	.
=44	=44	=44	=44
2d/	(8A\L	(16cc\LL	.
.	.	16cc#\	.
.	8F#\J	16ee\	.
.	.	16dd\JJ	.
.	4Gn\)	16.ccn\LL	.
.	.	64dd\LL	.
.	.	64cc\JJJ	.
.	.	8b\J)	.
*v	*v	*	*
=45	=45	=45
*	*^	*
8E'\ 8e'\L	8g'/ 8cc'/L	4r	f
8D'\ 8d'\J	8g'/ 8b'/J	.	.
8C'\ 8c'\	(16ee/LL	8g\	.
.	16ff#/	.	p
*clefG2	*	*	*
16r	16gg/	8r	.
16e/ 16g/	16cc/JJ)	.	.
*	*v	*v	*
=46	=46	=46
*^	*	*
(8g/L	4d\	(8b/L	.
8f#/J)	.	8a/J)	.
*clefF4	*clefF4	*	*
.	.	32gQ/LLL	.
.	.	32aQ/JJJ	.
(16G/LL	4G\	4g/	.
16B/	.	.	.
16d/	.	.	.
16B/JJ)	.	.	.
=47	=47	=47	=47
16C/LL	(4C\	(16b/LK	.
16E/	.	8.a/J)	.
16A/	.	.	.
16E/JJ)	.	.	.
16D/LL	(4D\	(16g/LL	.
16c/	.	(16f#/)	.
16A/	.	16f#/	.
16c/JJ)	.	16d/JJ)	.
=48	=48	=48	=48
16G/LL	(4G\	4dd\	.
16B/	.	.	.
16d/	.	.	.
16B/JJ)	.	.	.
(16E/LL	4E\	8.g/L	.
16G/	.	.	.
16B/	.	.	.
16G/JJ)	.	16g/Jk	.
=49	=49	=49	=49
.	.	(32f#Q/LLL	.
.	.	32gQ/JJJ	.
16C/LL	(4C\	16b/LL	.
16E/	.	16a/J)	.
16A/	.	8a/J	.
16E/JJ)	.	.	.
16D/LL	4D\	(16g/LL	.
(16c/	.	(16f#/)	.
16A/	.	16f#/	.
16c/JJ)	.	16d/JJ)	.
*v	*v	*	*
=50	=50	=50
4G\ 4B\	4g/	.
8E-\ 8e-\L	8g\ 8cc#\ 8gg\L	f
8E-\ 8e-\J	8g\ 8cc#\ 8gg\J	.
=51	=51	=51
4E-\ 4e-\	4g\ 4cc#\ 4gg\	.
*clefG2	*	*
8d/ 8a/L	8ff#\ 8ddd\L	p
8d/ 8a/J	8ff#\ 8ddd\J	.
=52	=52	=52
4d/ 4a/	4ff#\ 4ddd\	.
4r	8r	.
.	(16.b\LL	f
.	32ccn\JJk	.
*clefF4	*	*
=53	=53	=53
(16G\LL	8dd\L)	.
16B\	.	.
16d\	[8dd\J	.
16B\JJ)	.	.
(16G\LL	16dd\LL]	.
16B\	16dd\	.
16d\	16.dd\	.
16B\JJ)	.	.
.	32ee\JJk	.
=54	=54	=54
(16G\LL	(16dd\LL	.
16A\	16cc\J)	.
16e\	8.cc\J	.
16A\JJ	.	.
(16G\LL)	.	.
16A\	16cc'\LL	.
16e\	16b'\	.
16A\JJ)	16a'\JJ	.
=55	=55	=55
(16F#\LL	(16a\LL	.
16A\	16dd\J)	.
16d\	([8dd\J	.
16A\JJ)	.	.
(16E\LL	16dd\LL]	.
16A\	32ee\L	.
.	32dd\JJJ)	.
16c\	(32dd\LLL	.
.	32cc\	.
16A\JJ)	32b\	.
.	32cc\JJJ)	.
=56	=56	=56
(16D#\LL	(16cc\LL	.
16F#\	16b\J)	.
16A\	8.b\J	.
16D#\JJ)	.	.
(16E\LL	.	.
.	(32bQ/LLL	.
.	32ccQ/JJJ	.
16B\	16dd'\LL)	.
16Dn\	16cc'\	.
16G\JJ)	16b'\JJ	.
=57	=57	=57
(16C#\LL	(16b/LL	.
16E\	16a/)	.
16G\	16a'/	.
16E\JJ)	16a'/JJ	.
(16C#\LL	8a/L	.
16E\	.	.
16G\	8a/J	.
16E\JJ)	.	.
=58	=58	=58
.	(32cc#Q/LLL	.
.	32ddQ/	.
.	(32eeQ/JJJ	.
(16Cn\LL	4dd\)	.
16F#\	.	.
16A\	.	.
16C\JJ)	.	.
16BB\LL	(16dd\LL)	.
(16G\	32ee\L	.
.	32dd\J	.
16E\	16ccn\)	.
16D\JJ)	16b'\JJ	.
=59	=59	=59
4.C\ 4.E\	(16b/LL	.
.	16a/	.
.	16g#/	.
.	16a/JJ	.
.	16b/LL	.
.	16cc/)	.
8C#\ 8A\	16e/	.
.	16a/JJ	.
=60	=60	=60
4D\ 4A\	(16g/LL	.
.	16f#/	.
.	16e/	.
.	16d/JJ	.
4r	16e/LL	.
.	16f#/	.
.	16g/	.
.	16a/JJ)	.
*clefG2	*	*
=61	=61	=61
16g/LL	(8b\L	p
(16d/	.	.
.	32ddQ/	.
16g/	16.cc\L	.
16d/JJ	.	.
.	(32b\JJk)	.
16f#/LL	8a\L	.
16d/	.	.
16g/	8b\J)	.
16d/JJ	.	.
=62	=62	=62
16a/LL	(8cc\L	.
16d/	.	.
16f#/	8dd\	.
16d/JJ	.	.
16g/LL	8cc\	.
16d/	.	.
16g/)	8b\J)	.
16d/JJ	.	.
*clefF4	*	*
=63	=63	=63
8G\ 8B\L	[2bb\	mf
32dQ/	.	.
16.A\ 16.c\L	.	.
32G\ 32B\JJk	.	.
8F#\ (8A\L	.	.
8G\ 8B\J)	.	.
=64	=64	=64
8A\ (8c\L	2bb\]	.
8B\ 8d\	.	.
8A\ 8c\	.	.
8G\ 8B\J)	.	.
=65	=65	=65
.	32ccc#Q/LLL	.
.	32dddQ/JJJ	.
8B\ (8d\L	8g\ (8gg\L	f
8A\ 8c\ 8d#\J	8f#\ 8ff#\J	.
8G\ 8B\)	8e\ 8ee\)	.
8r	16r	.
.	16b\	p
=66	=66	=66
8G\ (8B\L	(8e/ 8ee/L	.
8Fn\ 8G\ 8B\J	8d/ 8dd/J	.
8E\ 8G\)	8c/) 8cc/	.
8r	16r	.
.	16g/	f
=67	=67	=67
8E\ (8G\L	(8c/ 8cc/L	.
8D\ 8Fn\ 8G#\J	8B/) 8b/J	.
4C\ 4E\ 4A\)	(16a\LL	.
.	16ee\JJ)	.
.	(32dd\LLL	.
.	32cc\	.
.	32b\	.
.	32a\JJJ)	.
=68	=68	=68
*^	*	*
(8B/L	4D\	(8g/L	.
8F#/J)	.	8a/J)	.
(8F#/L	4GG\	(8a#/L	.
8Gn/J)	.	8b/J)	.
*v	*v	*	*
=69	=69	=69
8B\ (8d\L	(8gg\L	p
8A\ 8cn\ 8d#\J	8ff#\J	.
.	32eeQ/LLL	.
.	32ff#Q/JJJ	.
8G\ 8B\ 8e\)	8ee\)	.
8r	16r	.
.	16bb\	f
*clefG2	*	*
=70	=70	=70
(8g/ 8b/L	(8eee\L	.
8fn/ 8g/ 8b/J	8ddd\J	.
.	32cccQ/LLL	.
.	32dddQ/JJJ	.
8e/) 8g/ 8cc/	8ccc\)	.
8r	16r	.
.	16gg\	p
=71	=71	=71
8e/ 8g/L	(8ccc\L	.
8d/ 8fn/ 8g#/J	8bb\J)	.
.	32aaQ/LLL	.
.	(32bbQ/JJJ	.
4c/ 4e/ 4a/	16aa\LL	.
.	16eee\JJ)	.
.	(32ddd\LLL	.
.	32ccc\	.
.	32bb\	.
.	32aa\JJJ)	.
=72	=72	=72
8d/ 8gn/ 8b/	16gg'\LL	.
.	16aa'\	.
8r	16bb-'\	.
.	16bbn'\JJ	.
8d/ 8g/ 8b/	16ccc'\LL	.
.	16ccc#'\	.
8r	16ddd'\	.
.	16ddd#'\JJ	.
=73	=73	=73
8d/ 8g/ 8cc/	(32ddd#\LLL	<
.	32eee\	.
.	32ddd#\	.
.	32eee\JJJ)	.
8r	(32dddn\LLL	.
.	32cccn\	.
.	32bb\	.
.	32aa\JJJ)	.
8d/ 8f#/ 8cc/	(4aa\	f
8r	.	.
=74	=74	=74
.	32ggQ/LLL	.
.	32aaQ/JJJ	.
8g/ 8b/	32gg\)	p
.	(32gg\LLL	.
.	32ff#\	.
.	32gg\JJJ	.
8r	32aa\LLL	.
.	32gg\	.
.	32ff#\	.
.	32ee\JJJ	.
4r	32dd\)	.
.	(32ee\LLL	.
.	32dd#\	.
.	32ee\JJJ	.
.	32ff#\LLL	.
.	32ee\	.
.	32ddn\)	.
.	32cc\JJJ	.
*clefF4	*	*
=75	=75	=75
*^	*	*
4d/	(8G\L	16b/LL	p
.	.	(64cc/LL	.
.	.	64b/	.
.	.	64cc/	.
.	.	64b/JJJJ	.
.	.	32ddQ/	.
.	16.A\L	16.cc/LL	.
.	32G\JJk)	[32b/JJk	.
4d/	(8F#\L	16b/LK]	.
.	.	8a/	.
.	8G\J)	.	.
.	.	[16b/Jk)	.
=76	=76	=76	=76
4d/	(8A\L	(16b\LK]	.
.	.	8cc\	.
.	8F#\J)	.	.
.	.	32ee\LL	.
.	.	32dd\JJJ)	.
4d/	4G\	8cc\L	.
.	.	8b\J	.
*v	*v	*	*
=77	=77	=77
8E'\ 8e'\L	8g'/ 8cc'/L	f
8D'\ 8d'\J	8g'/ 8b'/J	.
8C'\ 8c'\	8g'/ 8ee'/	.
16r	16r	.
16B\	16dd\	p
=78	=78	=78
*^	*	*
4d/	(8F#\L	(32dd\LLL	.
.	.	32cc\	.
.	.	32b\	.
.	.	32a\JJJ)	.
.	8G\J)	(32cc/LLL	.
.	.	32b/	.
.	.	32a/	.
.	.	32g/JJJ)	.
4d/	4D\	(8g/ 8b/L	.
.	.	8f#/) 8a/J	.
=79	=79	=79	=79
4d/	(8G\L	(16a#/LL	.
.	.	16b/	.
.	.	32ddQ/	.
.	16A\L	16cc/	.
.	16G\JJ)	16b/JJ)	.
4r	8F#\ 8d\L	(16g#/LL	.
.	.	16an/JJ)	.
.	8G\ 8d\J	16r	.
.	.	32cc\LLL	.
.	.	32b\JJJ	.
*v	*v	*	*
=80	=80	=80
8A\ 8d\L	16r	.
.	(32dd\LLL	.
.	32cc\JJJ)	.
8F#\ 8d\J	16r	.
.	32ee\LLL	.
.	32dd\JJJ	.
4G\ 4d\	(16.cc\LL	.
.	64dd\LL	.
.	64cc\JJJ	.
.	8b\J)	.
=81	=81	=81
8E'\ 8e'\L	8g'/ 8cc'/L	f
8D'\ 8d'\J	8g'/ 8b'/J	.
8C\ 8c\	16.g\ (16.ee\LL	.
.	32ff#\JJk	.
16r	16gg\LL)	.
16e\ 16g\	16cc\JJ	p
=82	=82	=82
*^	*	*
(8g/L	4d\	(8b/L	.
8f#/J)	.	8a/J)	.
.	.	32gQ/LLL	.
.	.	32aQ/JJJ	.
(16G/LL	4G\	4g/	.
16B/	.	.	.
16d/	.	.	.
16B/JJ)	.	.	.
=83	=83	=83	=83
16C/LL	(4C\	4a/	.
16E/	.	.	.
16A/	.	.	.
16E/JJ)	.	.	.
16D/LL	(4D\	(16g/LL	.
16c/	.	(16f#/)	.
16A/	.	16f#/	.
16c/JJ)	.	16d/JJ)	.
=84	=84	=84	=84
16G/LL	(4G\	4dd\	.
16B/	.	.	.
16d/	.	.	.
16B/JJ)	.	.	.
16E/LL	(4E\	8.g/L	.
16G/	.	.	.
16B/	.	.	.
16G/JJ)	.	(16g/Jk	.
=85	=85	=85	=85
(16C/LL	4C\	16b/LL	.
16E/	.	16a/J)	.
16A/	.	8a/J	.
16E/JJ)	.	.	.
16D/LL	4D\	(16g/LL	.
(16c/	.	(16f#/)	.
16A/	.	16f#/	.
16c/JJ)	.	16d/JJ)	.
*v	*v	*	*
=86	=86	=86
16GG/LL	4g/	.
16G/	.	.
16B/	.	.
16d/JJ	.	.
16EE/LL	4g\ 4gg\	.
16E/	.	.
16G/	.	.
16B/JJ	.	.
=87	=87	=87
.	32bbQ/	.
16CC/LL	4a\ 4aa\	<
(16C/	.	.
16E/	.	.
16A/JJ)	.	.
16DD/LL	(16g/ 16gg/LL	.
16D/	16f#/) 16ff#/	.
16A/	(16f#/ 16ff#/	.
16c/JJ	16d/) 16dd/JJ	.
=88	=88	=88
16BBB/LL	4dd\ 4ddd\	.
(16BB/	.	.
16D/	.	.
16G/JJ)	.	.
16EE/LL	8g\ 8gg\L	f
(16E/	.	.
16G/	8g\ 8gg\J	.
16B/JJ)	.	.
=89	=89	=89
16CC/LL	16b\ (16bb\LL	.
(16C/	16a\ 16aa\)	.
16E/	16a'\ 16aa'\	.
16A/JJ)	16a'\ 16aa'\JJ	.
16DD/LL	(16g/ 16gg/LL	.
16D/	16f#/) 16ff#/	.
(16A/	(16f#/ 16ff#/	.
16c/JJ)	16d/) 16dd/JJ	.
=90	=90	=90
16G\LL	4g\ 4gg\	.
16B\ 16d\	.	.
16B\ 16d\	.	.
16B\ 16d\JJ	.	.
16D\LL	(16bb\LL	p
16c\ 16d\	16aa\	.
16c\ 16d\	16aa\)	.
16c\ 16d\JJ	16ff#\JJ	.
=91	=91	=91
16G\LL	(16gg\LL	.
16B\	16bb\J)	.
16B\ 16d\	8ddd\J	.
16B\ 16d\JJ	.	.
16D\LL	16bb\LL	.
16c\ 16d\	16aa\	.
16c\ 16d\	(16aa\	.
16c\ 16d\JJ	16ff#\JJ)	.
=92	=92	=92
8G\ 8B\ 8d\L	16g\ (16gg\LL	p
.	16b\ 16bb\)	.
8D\ 8F#\ 8c\J	16dd'\ 16ddd'\	.
.	16dd'\ 16ddd'\JJ	.
8G\ 8B\L	16g\ 16gg\LL	.
.	16b\ 16bb\	.
8D\ 8F#\ 8c\J	16dd'\ 16ddd'\	.
.	16dd'\ 16ddd'\JJ	.
=93	=93	=93
[4G\ [4B\	4dd\ (4ddd\	.
8G\] 8B\]	8g\ 8gg\)	.
8r	8r	.
==	==	==
*-	*-	*-
!!!SMS: Alte Mozart-Ausgabe, Band 20, Breitkopf &amp; H&auml;rtel 1877-1883.
!!!ONB: Stich und Druck von Breitkopf &amp; H&auml;rtel in Leipzig
!!!ONB: Ausgegeben 1878
!!!ENC: Craig Stuart Sapp
!!!END: 2009/10/15/
!!!title: @{OTL}, K 311 (284c), @{OMV}
!!!hum2abc: --no-tempo -s 0.65 --spacing 2.0 -p "%gracespace  0 6.0 12.0"
